static/img/icon/linked-in.svg

<svg height="16" viewBox="0 0 17 16" width="17" xmlns="http://www.w3.org/2000/svg"><path d="m.258 15.845h3.552v-10.69h-3.55v10.69zm1.8-15.845c-1.216 0-2.012.798-2.012 1.847 0 1.026.773 1.848 1.965 1.848h.025c1.24 0 2.01-.822 2.01-1.848-.024-1.05-.771-1.847-1.988-1.847zm14.57 9.714v6.13h-3.554v-5.72c0-1.436-.514-2.416-1.8-2.416-.983 0-1.567.66-1.824 1.3-.093.228-.118.546-.118.866v5.97h-3.555s.048-9.687 0-10.69h3.555v1.516c-.007.01-.017.022-.023.034h.022v-.034c.472-.728 1.315-1.767 3.204-1.767 2.34 0 4.092 1.527 4.092 4.81z" fill-rule="evenodd"/></svg>

<svg width="17" height="16" viewBox="0 0 17 16" xmlns="http://www.w3.org/2000/svg"><title>LinkedIn Icon</title><path d="M.258 15.845H3.81V5.155H.26v10.69zM2.058 0C.842 0 .046.798.046 1.847c0 1.026.773 1.848 1.965 1.848h.025c1.24 0 2.01-.822 2.01-1.848C4.022.797 3.275 0 2.058 0zm14.57 9.714v6.13h-3.554v-5.72c0-1.436-.514-2.416-1.8-2.416-.983 0-1.567.66-1.824 1.3-.093.228-.118.546-.118.866v5.97H5.777s.048-9.687 0-10.69h3.555V6.67c-.007.01-.017.022-.023.034h.022V6.67c.472-.728 1.315-1.767 3.204-1.767 2.34 0 4.092 1.527 4.092 4.81z" fill-rule="evenodd"/></svg>
